{
  "type": "map",
  "version": "1.10",
  "tiledversion": "1.10.0",
  "orientation": "orthogonal",
  "renderorder": "right-down",
  "width": 79,
  "height": 45,
  "tilewidth": 32,
  "tileheight": 32,
  "infinite": false,
  "nextlayerid": 12,
  "nextobjectid": 203,
  "compressionlevel": -1,
  "backgroundcolor": "#27b99a",
  "tilesets": [
    {
      "firstgid": 1,
      "name": "objs",
      "tilewidth": 384,
      "tileheight": 332,
      "spacing": 0,
      "margin": 0,
      "tilecount": 62,
      "columns": 0,
      "tiles": [
        {
          "id": 0,
          "image": "./demos/objs_tile0_alter.png",
          "imagewidth": 160,
          "imageheight": 192
        },
        {
          "id": 1,
          "image": "./demos/objs_tile1_blobBlue.png",
          "imagewidth": 96,
          "imageheight": 64
        },
        {
          "id": 2,
          "image": "./demos/objs_tile2_blobGreen.png",
          "imagewidth": 96,
          "imageheight": 64
        },
        {
          "id": 3,
          "image": "./demos/objs_tile3_blue.png",
          "imagewidth": 64,
          "imageheight": 64
        },
        {
          "id": 4,
          "image": "./demos/objs_tile4_bombStroked.png",
          "imagewidth": 96,
          "imageheight": 128
        },
        {
          "id": 5,
          "image": "./demos/objs_tile5_castleWall.png",
          "imagewidth": 64,
          "imageheight": 64
        },
        {
          "id": 6,
          "image": "./demos/objs_tile6_cloud.png",
          "imagewidth": 384,
          "imageheight": 128
        },
        {
          "id": 7,
          "image": "./demos/objs_tile7_column1.png",
          "imagewidth": 128,
          "imageheight": 192
        },
        {
          "id": 8,
          "image": "./demos/objs_tile8_column2.png",
          "imagewidth": 128,
          "imageheight": 192
        },
        {
          "id": 9,
          "image": "./demos/objs_tile9_doorBlueStroked.png",
          "imagewidth": 160,
          "imageheight": 192
        },
        {
          "id": 10,
          "image": "./demos/objs_tile10_doorGreenStroke.png",
          "imagewidth": 160,
          "imageheight": 192
        },
        {
          "id": 11,
          "image": "./demos/objs_tile11_doorRedStroked.png",
          "imagewidth": 160,
          "imageheight": 192
        },
        {
          "id": 12,
          "image": "./demos/objs_tile12_doorStroked.png",
          "imagewidth": 160,
          "imageheight": 192
        },
        {
          "id": 13,
          "image": "./demos/objs_tile13_earthWall.png",
          "imagewidth": 64,
          "imageheight": 64
        },
        {
          "id": 14,
          "image": "./demos/objs_tile14_exit.png",
          "imagewidth": 160,
          "imageheight": 192
        },
        {
          "id": 15,
          "image": "./demos/objs_tile15_flare.png",
          "imagewidth": 192,
          "imageheight": 192
        },
        {
          "id": 16,
          "image": "./demos/objs_tile16_gemBlueStroked.png",
          "imagewidth": 64,
          "imageheight": 64
        },
        {
          "id": 17,
          "image": "./demos/objs_tile17_gemRedStroked.png",
          "imagewidth": 64,
          "imageheight": 64
        },
        {
          "id": 18,
          "image": "./demos/objs_tile18_grassLarge.png",
          "imagewidth": 224,
          "imageheight": 32
        },
        {
          "id": 19,
          "image": "./demos/objs_tile19_grassSmall.png",
          "imagewidth": 160,
          "imageheight": 32
        },
        {
          "id": 20,
          "image": "./demos/objs_tile20_grey.png",
          "imagewidth": 64,
          "imageheight": 64
        },
        {
          "id": 21,
          "image": "./demos/objs_tile21_hero.png",
          "imagewidth": 128,
          "imageheight": 160
        },
        {
          "id": 22,
          "image": "./demos/objs_tile22_keyGreenStroked.png",
          "imagewidth": 96,
          "imageheight": 64
        },
        {
          "id": 23,
          "image": "./demos/objs_tile23_keyRedStroked.png",
          "imagewidth": 96,
          "imageheight": 64
        },
        {
          "id": 24,
          "image": "./demos/objs_tile24_keyYellowStroked.png",
          "imagewidth": 96,
          "imageheight": 64
        },
        {
          "id": 25,
          "image": "./demos/objs_tile25_platform1.png",
          "imagewidth": 192,
          "imageheight": 64
        },
        {
          "id": 26,
          "image": "./demos/objs_tile26_platform2.png",
          "imagewidth": 192,
          "imageheight": 64
        },
        {
          "id": 27,
          "image": "./demos/objs_tile27_platform3.png",
          "imagewidth": 192,
          "imageheight": 64
        },
        {
          "id": 28,
          "image": "./demos/objs_tile28_platform4.png",
          "imagewidth": 192,
          "imageheight": 64
        },
        {
          "id": 29,
          "image": "./demos/objs_tile29_platformBase1.png",
          "imagewidth": 256,
          "imageheight": 96
        },
        {
          "id": 30,
          "image": "./demos/objs_tile30_platformBase2.png",
          "imagewidth": 256,
          "imageheight": 96
        },
        {
          "id": 31,
          "image": "./demos/objs_tile31_platformBase3.png",
          "imagewidth": 256,
          "imageheight": 96
        },
        {
          "id": 32,
          "image": "./demos/objs_tile32_platformBase4.png",
          "imagewidth": 256,
          "imageheight": 96
        },
        {
          "id": 33,
          "image": "./demos/objs_tile33_platformBlock1.png",
          "imagewidth": 128,
          "imageheight": 96
        },
        {
          "id": 34,
          "image": "./demos/objs_tile34_platformBlock2.png",
          "imagewidth": 128,
          "imageheight": 96
        },
        {
          "id": 35,
          "image": "./demos/objs_tile35_platformBlock3.png",
          "imagewidth": 128,
          "imageheight": 96
        },
        {
          "id": 36,
          "image": "./demos/objs_tile36_platformBlock4.png",
          "imagewidth": 128,
          "imageheight": 96
        },
        {
          "id": 37,
          "image": "./demos/objs_tile37_platformConnector1.png",
          "imagewidth": 96,
          "imageheight": 64
        },
        {
          "id": 38,
          "image": "./demos/objs_tile38_platformConnector2.png",
          "imagewidth": 96,
          "imageheight": 64
        },
        {
          "id": 39,
          "image": "./demos/objs_tile39_platformConnector3.png",
          "imagewidth": 96,
          "imageheight": 64
        },
        {
          "id": 40,
          "image": "./demos/objs_tile40_platformConnector4.png",
          "imagewidth": 96,
          "imageheight": 64
        },
        {
          "id": 41,
          "image": "./demos/objs_tile41_pushBlock1.png",
          "imagewidth": 96,
          "imageheight": 96
        },
        {
          "id": 42,
          "image": "./demos/objs_tile42_pushBlock2.png",
          "imagewidth": 96,
          "imageheight": 96
        },
        {
          "id": 43,
          "image": "./demos/objs_tile43_pushBlock3.png",
          "imagewidth": 96,
          "imageheight": 96
        },
        {
          "id": 44,
          "image": "./demos/objs_tile44_shadow.png",
          "imagewidth": 64,
          "imageheight": 64
        },
        {
          "id": 45,
          "image": "./demos/objs_tile45_shieldStroked.png",
          "imagewidth": 93,
          "imageheight": 93
        },
        {
          "id": 46,
          "image": "./demos/objs_tile46_sign.png",
          "imagewidth": 160,
          "imageheight": 128
        },
        {
          "id": 48,
          "image": "./demos/objs_tile48_swordStroked.png",
          "imagewidth": 192,
          "imageheight": 96
        },
        {
          "id": 49,
          "image": "./demos/objs_tile49_torch.png",
          "imagewidth": 96,
          "imageheight": 96
        },
        {
          "id": 50,
          "image": "./demos/objs_tile50_trap.png",
          "imagewidth": 128,
          "imageheight": 32
        },
        {
          "id": 51,
          "image": "./demos/objs_tile51_wallDecor1.png",
          "imagewidth": 128,
          "imageheight": 96
        },
        {
          "id": 52,
          "image": "./demos/objs_tile52_wallDecor2.png",
          "imagewidth": 128,
          "imageheight": 96
        },
        {
          "id": 53,
          "image": "./demos/objs_tile53_wallDecor3.png",
          "imagewidth": 160,
          "imageheight": 128
        },
        {
          "id": 54,
          "image": "./demos/objs_tile54_window1.png",
          "imagewidth": 65,
          "imageheight": 64
        },
        {
          "id": 55,
          "image": "./demos/objs_tile55_window2.png",
          "imagewidth": 64,
          "imageheight": 64
        },
        {
          "id": 56,
          "image": "./demos/objs_tile56_window3.png",
          "imagewidth": 56,
          "imageheight": 59
        },
        {
          "id": 57,
          "image": "./demos/objs_tile57_backgroundArch.png",
          "imagewidth": 135,
          "imageheight": 115
        },
        {
          "id": 58,
          "image": "./demos/objs_tile58_backgroundMountain.png",
          "imagewidth": 380,
          "imageheight": 140
        },
        {
          "id": 59,
          "image": "./demos/objs_tile59_backgroundTower.png",
          "imagewidth": 129,
          "imageheight": 332
        },
        {
          "id": 60,
          "image": "./demos/objs_tile60_backgroundTree.png",
          "imagewidth": 109,
          "imageheight": 177
        },
        {
          "id": 61,
          "image": "./demos/objs_tile61_earthWall2.png",
          "imagewidth": 64,
          "imageheight": 64
        },
        {
          "id": 62,
          "image": "./demos/objs_tile62_skeleton.png",
          "imagewidth": 133,
          "imageheight": 160
        }
      ]
    }
  ],
  "layers": [
    {
      "type": "objectgroup",
      "id": 11,
      "name": "static",
      "x": 0,
      "y": 0,
      "visible": true,
      "opacity": 1,
      "parallaxx": 0,
      "parallaxy": 0,
      "draworder": "topdown",
      "objects": [
        {
          "id": 90,
          "name": "",
          "type": "",
          "x": 146.97,
          "y": 693.727,
          "width": 192,
          "height": 192,
          "rotation": 0,
          "visible": true,
          "gid": 16
        }
      ]
    },
    {
      "type": "objectgroup",
      "id": 10,
      "name": "parallax clouds",
      "x": 0,
      "y": 0,
      "visible": true,
      "opacity": 1,
      "parallaxx": 0.5,
      "parallaxy": 0.5,
      "draworder": "topdown",
      "objects": [
        {
          "id": 95,
          "name": "",
          "type": "",
          "x": -16.2424,
          "y": 452.394,
          "width": 384,
          "height": 128,
          "rotation": 0,
          "visible": true,
          "gid": 7
        },
        {
          "id": 91,
          "name": "",
          "type": "",
          "x": 373.939,
          "y": 627.121,
          "width": 384,
          "height": 128,
          "rotation": 0,
          "visible": true,
          "gid": 2147483655
        },
        {
          "id": 93,
          "name": "",
          "type": "",
          "x": 2105.85,
          "y": 510.818,
          "width": 384,
          "height": 128,
          "rotation": 0,
          "visible": true,
          "gid": 2147483655
        },
        {
          "id": 92,
          "name": "",
          "type": "",
          "x": 1453.52,
          "y": 651.909,
          "width": 384,
          "height": 128,
          "rotation": 0,
          "visible": true,
          "gid": 7
        },
        {
          "id": 94,
          "name": "",
          "type": "",
          "x": 946.606,
          "y": 420.455,
          "width": 384,
          "height": 128,
          "rotation": 0,
          "visible": true,
          "gid": 7
        }
      ]
    },
    {
      "type": "objectgroup",
      "id": 1,
      "name": "parallax background",
      "x": 0,
      "y": 0,
      "visible": true,
      "opacity": 1,
      "parallaxx": 0.8,
      "parallaxy": 0.8,
      "draworder": "topdown",
      "objects": [
        {
          "id": 105,
          "name": "",
          "type": "",
          "x": 66.6667,
          "y": 1079,
          "width": 837.333,
          "height": 320,
          "rotation": 0,
          "visible": true,
          "gid": 59
        },
        {
          "id": 106,
          "name": "",
          "type": "",
          "x": 592,
          "y": 1055,
          "width": 920,
          "height": 448,
          "rotation": 0,
          "visible": true,
          "gid": 59
        },
        {
          "id": 107,
          "name": "",
          "type": "",
          "x": 1173.54,
          "y": 1179.49,
          "width": 920,
          "height": 352,
          "rotation": -10.4469,
          "visible": true,
          "gid": 59
        },
        {
          "id": 108,
          "name": "",
          "type": "",
          "x": 1824.67,
          "y": 1141,
          "width": 656.364,
          "height": 448,
          "rotation": 0,
          "visible": true,
          "gid": 59
        },
        {
          "id": 109,
          "name": "",
          "type": "",
          "x": 2145.33,
          "y": 817,
          "width": 129,
          "height": 332,
          "rotation": 0,
          "visible": true,
          "gid": 60
        },
        {
          "id": 110,
          "name": "",
          "type": "",
          "x": 1771.52,
          "y": 976.697,
          "width": 129,
          "height": 332,
          "rotation": 0,
          "visible": true,
          "gid": 60
        },
        {
          "id": 113,
          "name": "",
          "type": "",
          "x": 847.515,
          "y": 823.788,
          "width": 129,
          "height": 332,
          "rotation": 0,
          "visible": true,
          "gid": 60
        }
      ]
    },
    {
      "type": "objectgroup",
      "id": 2,
      "name": "background",
      "x": 0,
      "y": 0,
      "visible": true,
      "opacity": 1,
      "draworder": "topdown",
      "objects": [
        {
          "id": 1,
          "name": "",
          "type": "",
          "x": 0,
          "y": 1440,
          "width": 2528,
          "height": 385,
          "rotation": 0,
          "visible": true,
          "gid": 14
        },
        {
          "id": 79,
          "name": "",
          "type": "",
          "x": 448,
          "y": 1087,
          "width": 512,
          "height": 320,
          "rotation": 0,
          "visible": true,
          "gid": 14
        },
        {
          "id": 169,
          "name": "",
          "type": "",
          "x": 1216,
          "y": 991,
          "width": 256,
          "height": 160,
          "rotation": 0,
          "visible": true,
          "gid": 62
        },
        {
          "id": 172,
          "name": "",
          "type": "",
          "x": 992,
          "y": 1023,
          "width": 256,
          "height": 160,
          "rotation": 0,
          "visible": true,
          "gid": 62
        },
        {
          "id": 177,
          "name": "",
          "type": "",
          "x": 512,
          "y": 735,
          "width": 256,
          "height": 160,
          "rotation": 0,
          "visible": true,
          "gid": 62
        }
      ]
    },
    {
      "type": "objectgroup",
      "id": 3,
      "name": "ground",
      "x": 0,
      "y": 0,
      "visible": true,
      "opacity": 1,
      "draworder": "topdown",
      "objects": [
        {
          "id": 2,
          "name": "",
          "type": "",
          "x": 0,
          "y": 1087,
          "width": 256,
          "height": 96,
          "rotation": 0,
          "visible": true,
          "gid": 31,
          "properties": [
            {
              "name": "bodyType",
              "type": "string",
              "value": "static"
            },
            {
              "name": "friction",
              "type": "float",
              "value": 1
            }
          ]
        },
        {
          "id": 3,
          "name": "",
          "type": "",
          "x": 256,
          "y": 1087,
          "width": 256,
          "height": 96,
          "rotation": 0,
          "visible": true,
          "gid": 31,
          "properties": [
            {
              "name": "bodyType",
              "type": "string",
              "value": "static"
            },
            {
              "name": "friction",
              "type": "float",
              "value": 1
            }
          ]
        },
        {
          "id": 4,
          "name": "",
          "type": "",
          "x": 1216,
          "y": 895,
          "width": 256,
          "height": 96,
          "rotation": 0,
          "visible": true,
          "gid": 30,
          "properties": [
            {
              "name": "bodyType",
              "type": "string",
              "value": "static"
            },
            {
              "name": "floating",
              "type": "bool",
              "value": true
            },
            {
              "name": "friction",
              "type": "float",
              "value": 1
            }
          ]
        },
        {
          "id": 5,
          "name": "",
          "type": "",
          "x": 512,
          "y": 1087,
          "width": 256,
          "height": 96,
          "rotation": 0,
          "visible": true,
          "gid": 31,
          "properties": [
            {
              "name": "bodyType",
              "type": "string",
              "value": "static"
            },
            {
              "name": "friction",
              "type": "float",
              "value": 1
            }
          ]
        },
        {
          "id": 7,
          "name": "",
          "type": "",
          "x": 768,
          "y": 1087,
          "width": 256,
          "height": 96,
          "rotation": 0,
          "visible": true,
          "gid": 31,
          "properties": [
            {
              "name": "bodyType",
              "type": "string",
              "value": "static"
            },
            {
              "name": "friction",
              "type": "float",
              "value": 1
            }
          ]
        },
        {
          "id": 9,
          "name": "",
          "type": "",
          "x": 992,
          "y": 1087,
          "width": 256,
          "height": 96,
          "rotation": 0,
          "visible": true,
          "gid": 31,
          "properties": [
            {
              "name": "bodyType",
              "type": "string",
              "value": "static"
            },
            {
              "name": "friction",
              "type": "float",
              "value": 1
            }
          ]
        },
        {
          "id": 11,
          "name": "",
          "type": "",
          "x": 1248,
          "y": 1087,
          "width": 256,
          "height": 96,
          "rotation": 0,
          "visible": true,
          "gid": 31,
          "properties": [
            {
              "name": "bodyType",
              "type": "string",
              "value": "static"
            },
            {
              "name": "friction",
              "type": "float",
              "value": 1
            }
          ]
        },
        {
          "id": 12,
          "name": "",
          "type": "",
          "x": 84,
          "y": 1199,
          "width": 128,
          "height": 96,
          "rotation": 0,
          "visible": true,
          "gid": 52
        },
        {
          "id": 13,
          "name": "",
          "type": "",
          "x": 652,
          "y": 1319,
          "width": 128,
          "height": 96,
          "rotation": 0,
          "visible": true,
          "gid": 52
        },
        {
          "id": 14,
          "name": "",
          "type": "",
          "x": 972,
          "y": 1203,
          "width": 128,
          "height": 96,
          "rotation": 0,
          "visible": true,
          "gid": 52
        },
        {
          "id": 15,
          "name": "",
          "type": "",
          "x": 1420,
          "y": 1319,
          "width": 128,
          "height": 96,
          "rotation": 0,
          "visible": true,
          "gid": 52
        },
        {
          "id": 16,
          "name": "",
          "type": "",
          "x": 1748,
          "y": 1183,
          "width": 128,
          "height": 96,
          "rotation": 0,
          "visible": true,
          "gid": 52
        },
        {
          "id": 17,
          "name": "",
          "type": "",
          "x": 1964.24,
          "y": 1354.15,
          "width": 128,
          "height": 96,
          "rotation": 0,
          "visible": true,
          "gid": 52
        },
        {
          "id": 18,
          "name": "",
          "type": "",
          "x": 272,
          "y": 1295,
          "width": 128,
          "height": 96,
          "rotation": 0,
          "visible": true,
          "gid": 53
        },
        {
          "id": 19,
          "name": "",
          "type": "",
          "x": 576,
          "y": 1191,
          "width": 128,
          "height": 96,
          "rotation": 0,
          "visible": true,
          "gid": 53
        },
        {
          "id": 20,
          "name": "",
          "type": "",
          "x": 1048,
          "y": 1323,
          "width": 128,
          "height": 96,
          "rotation": 0,
          "visible": true,
          "gid": 53
        },
        {
          "id": 21,
          "name": "",
          "type": "",
          "x": 1288,
          "y": 1211,
          "width": 128,
          "height": 96,
          "rotation": 0,
          "visible": true,
          "gid": 53
        },
        {
          "id": 22,
          "name": "",
          "type": "",
          "x": 1720,
          "y": 1339,
          "width": 128,
          "height": 96,
          "rotation": 0,
          "visible": true,
          "gid": 53
        },
        {
          "id": 23,
          "name": "",
          "type": "",
          "x": 2008,
          "y": 1203,
          "width": 128,
          "height": 96,
          "rotation": 0,
          "visible": true,
          "gid": 53
        },
        {
          "id": 24,
          "name": "",
          "type": "",
          "x": 2287.76,
          "y": 1198.03,
          "width": 128,
          "height": 96,
          "rotation": 0,
          "visible": true,
          "gid": 53
        },
        {
          "id": 84,
          "name": "",
          "type": "",
          "x": 514.545,
          "y": 907.545,
          "width": 128,
          "height": 96,
          "rotation": 0,
          "visible": true,
          "gid": 53
        },
        {
          "id": 86,
          "name": "",
          "type": "",
          "x": 658.667,
          "y": 963.606,
          "width": 128,
          "height": 96,
          "rotation": 0,
          "visible": true,
          "gid": 52
        },
        {
          "id": 87,
          "name": "",
          "type": "",
          "x": 448,
          "y": 831,
          "width": 256,
          "height": 96,
          "rotation": 0,
          "visible": true,
          "gid": 31,
          "properties": [
            {
              "name": "bodyType",
              "type": "string",
              "value": "static"
            },
            {
              "name": "floating",
              "type": "bool",
              "value": true
            },
            {
              "name": "friction",
              "type": "float",
              "value": 1
            }
          ]
        },
        {
          "id": 121,
          "name": "",
          "type": "",
          "x": 2190.79,
          "y": 1361.67,
          "width": 128,
          "height": 96,
          "rotation": 0,
          "visible": true,
          "gid": 53
        },
        {
          "id": 162,
          "name": "",
          "type": "",
          "x": 786.545,
          "y": 919.545,
          "width": 128,
          "height": 96,
          "rotation": 0,
          "visible": true,
          "gid": 53
        },
        {
          "id": 163,
          "name": "",
          "type": "",
          "x": 704,
          "y": 831,
          "width": 256,
          "height": 96,
          "rotation": 0,
          "visible": true,
          "gid": 31,
          "properties": [
            {
              "name": "bodyType",
              "type": "string",
              "value": "static"
            },
            {
              "name": "floating",
              "type": "bool",
              "value": true
            },
            {
              "name": "friction",
              "type": "float",
              "value": 1
            }
          ]
        },
        {
          "id": 164,
          "name": "",
          "type": "",
          "x": 1760,
          "y": 1087,
          "width": 256,
          "height": 96,
          "rotation": 0,
          "visible": true,
          "gid": 31,
          "properties": [
            {
              "name": "bodyType",
              "type": "string",
              "value": "static"
            },
            {
              "name": "friction",
              "type": "float",
              "value": 1
            }
          ]
        },
        {
          "id": 166,
          "name": "",
          "type": "",
          "x": 2016,
          "y": 1087,
          "width": 256,
          "height": 96,
          "rotation": 0,
          "visible": true,
          "gid": 31,
          "properties": [
            {
              "name": "bodyType",
              "type": "string",
              "value": "static"
            },
            {
              "name": "friction",
              "type": "float",
              "value": 1
            }
          ]
        },
        {
          "id": 175,
          "name": "",
          "type": "",
          "x": 992,
          "y": 959,
          "width": 256,
          "height": 96,
          "rotation": 0,
          "visible": true,
          "gid": 30,
          "properties": [
            {
              "name": "bodyType",
              "type": "string",
              "value": "static"
            },
            {
              "name": "floating",
              "type": "bool",
              "value": true
            },
            {
              "name": "friction",
              "type": "float",
              "value": 1
            }
          ]
        },
        {
          "id": 176,
          "name": "",
          "type": "",
          "x": 1472,
          "y": 1023,
          "width": 256,
          "height": 96,
          "rotation": 0,
          "visible": true,
          "gid": 30,
          "properties": [
            {
              "name": "bodyType",
              "type": "string",
              "value": "static"
            },
            {
              "name": "floating",
              "type": "bool",
              "value": true
            },
            {
              "name": "friction",
              "type": "float",
              "value": 1
            }
          ]
        },
        {
          "id": 180,
          "name": "",
          "type": "",
          "x": 512,
          "y": 671,
          "width": 256,
          "height": 96,
          "rotation": 0,
          "visible": true,
          "gid": 30,
          "properties": [
            {
              "name": "bodyType",
              "type": "string",
              "value": "static"
            },
            {
              "name": "floating",
              "type": "bool",
              "value": true
            },
            {
              "name": "friction",
              "type": "float",
              "value": 1
            }
          ]
        },
        {
          "id": 183,
          "name": "",
          "type": "",
          "x": 1504,
          "y": 1087,
          "width": 256,
          "height": 96,
          "rotation": 0,
          "visible": true,
          "gid": 31,
          "properties": [
            {
              "name": "bodyType",
              "type": "string",
              "value": "static"
            },
            {
              "name": "friction",
              "type": "float",
              "value": 1
            }
          ]
        },
        {
          "id": 184,
          "name": "",
          "type": "",
          "x": 2272,
          "y": 1087,
          "width": 256,
          "height": 96,
          "rotation": 0,
          "visible": true,
          "gid": 31,
          "properties": [
            {
              "name": "bodyType",
              "type": "string",
              "value": "static"
            },
            {
              "name": "friction",
              "type": "float",
              "value": 1
            }
          ]
        },
        {
          "id": 187,
          "name": "",
          "type": "",
          "x": 1280,
          "y": 991,
          "width": 128,
          "height": 96,
          "rotation": 0,
          "visible": true,
          "gid": 52
        },
        {
          "id": 188,
          "name": "",
          "type": "",
          "x": 544,
          "y": 735,
          "width": 128,
          "height": 96,
          "rotation": 0,
          "visible": true,
          "gid": 52
        }
      ]
    },
    {
      "type": "objectgroup",
      "id": 4,
      "name": "castle",
      "x": 0,
      "y": 0,
      "visible": true,
      "opacity": 1,
      "draworder": "topdown",
      "objects": [
        {
          "id": 25,
          "name": "",
          "type": "",
          "x": 1952,
          "y": 1023,
          "width": 256,
          "height": 96,
          "rotation": 0,
          "visible": true,
          "gid": 33
        },
        {
          "id": 26,
          "name": "",
          "type": "",
          "x": 1952,
          "y": 959,
          "width": 256,
          "height": 96,
          "rotation": 0,
          "visible": true,
          "gid": 33
        },
        {
          "id": 27,
          "name": "",
          "type": "",
          "x": 1952,
          "y": 895,
          "width": 256,
          "height": 96,
          "rotation": 0,
          "visible": true,
          "gid": 33
        },
        {
          "id": 28,
          "name": "",
          "type": "",
          "x": 1952,
          "y": 831,
          "width": 256,
          "height": 96,
          "rotation": 0,
          "visible": true,
          "gid": 33
        },
        {
          "id": 29,
          "name": "",
          "type": "",
          "x": 1952,
          "y": 639,
          "width": 256,
          "height": 96,
          "rotation": 0,
          "visible": true,
          "gid": 33
        },
        {
          "id": 30,
          "name": "",
          "type": "",
          "x": 1952,
          "y": 767,
          "width": 256,
          "height": 96,
          "rotation": 0,
          "visible": true,
          "gid": 33
        },
        {
          "id": 31,
          "name": "",
          "type": "",
          "x": 1952,
          "y": 703,
          "width": 256,
          "height": 96,
          "rotation": 0,
          "visible": true,
          "gid": 33
        },
        {
          "id": 33,
          "name": "",
          "type": "",
          "x": 1952,
          "y": 575,
          "width": 256,
          "height": 96,
          "rotation": 0,
          "visible": true,
          "gid": 33
        },
        {
          "id": 34,
          "name": "",
          "type": "",
          "x": 1888,
          "y": 511,
          "width": 256,
          "height": 96,
          "rotation": 0,
          "visible": true,
          "gid": 33
        },
        {
          "id": 133,
          "name": "",
          "type": "",
          "x": 1984,
          "y": 575,
          "width": 256,
          "height": 96,
          "rotation": 0,
          "visible": true,
          "gid": 2147483681
        },
        {
          "id": 134,
          "name": "",
          "type": "",
          "x": 1984,
          "y": 703,
          "width": 256,
          "height": 96,
          "rotation": 0,
          "visible": true,
          "gid": 2147483681
        },
        {
          "id": 135,
          "name": "",
          "type": "",
          "x": 1984,
          "y": 1023,
          "width": 256,
          "height": 96,
          "rotation": 0,
          "visible": true,
          "gid": 2147483681
        },
        {
          "id": 136,
          "name": "",
          "type": "",
          "x": 1984,
          "y": 639,
          "width": 256,
          "height": 96,
          "rotation": 0,
          "visible": true,
          "gid": 2147483681
        },
        {
          "id": 137,
          "name": "",
          "type": "",
          "x": 1984,
          "y": 895,
          "width": 256,
          "height": 96,
          "rotation": 0,
          "visible": true,
          "gid": 2147483681
        },
        {
          "id": 138,
          "name": "",
          "type": "",
          "x": 2048,
          "y": 511,
          "width": 256,
          "height": 96,
          "rotation": 0,
          "visible": true,
          "gid": 2147483681
        },
        {
          "id": 139,
          "name": "",
          "type": "",
          "x": 1984,
          "y": 831,
          "width": 256,
          "height": 96,
          "rotation": 0,
          "visible": true,
          "gid": 2147483681
        },
        {
          "id": 140,
          "name": "",
          "type": "",
          "x": 1984,
          "y": 767,
          "width": 256,
          "height": 96,
          "rotation": 0,
          "visible": true,
          "gid": 2147483681
        },
        {
          "id": 141,
          "name": "",
          "type": "",
          "x": 1984,
          "y": 959,
          "width": 256,
          "height": 96,
          "rotation": 0,
          "visible": true,
          "gid": 2147483681
        },
        {
          "id": 146,
          "name": "",
          "type": "",
          "x": 2048,
          "y": 447,
          "width": 256,
          "height": 96,
          "rotation": 0,
          "visible": true,
          "gid": 2147483681
        },
        {
          "id": 147,
          "name": "",
          "type": "",
          "x": 1888,
          "y": 447,
          "width": 256,
          "height": 96,
          "rotation": 0,
          "visible": true,
          "gid": 33
        },
        {
          "id": 150,
          "name": "",
          "type": "",
          "x": 2048,
          "y": 383,
          "width": 256,
          "height": 96,
          "rotation": 0,
          "visible": true,
          "gid": 2147483681
        },
        {
          "id": 151,
          "name": "",
          "type": "",
          "x": 1888,
          "y": 383,
          "width": 256,
          "height": 96,
          "rotation": 0,
          "visible": true,
          "gid": 33
        },
        {
          "id": 153,
          "name": "",
          "type": "",
          "x": 2176,
          "y": 223,
          "width": 192,
          "height": 64,
          "rotation": 90,
          "visible": true,
          "gid": 29
        },
        {
          "id": 154,
          "name": "",
          "type": "",
          "x": 2240,
          "y": 223,
          "width": 192,
          "height": 64,
          "rotation": -270,
          "visible": true,
          "gid": 29
        },
        {
          "id": 155,
          "name": "",
          "type": "",
          "x": 2048,
          "y": 223,
          "width": 192,
          "height": 64,
          "rotation": 90,
          "visible": true,
          "gid": 29
        },
        {
          "id": 156,
          "name": "",
          "type": "",
          "x": 2112,
          "y": 223,
          "width": 192,
          "height": 64,
          "rotation": -270,
          "visible": true,
          "gid": 29
        },
        {
          "id": 157,
          "name": "",
          "type": "",
          "x": 1920,
          "y": 223,
          "width": 192,
          "height": 64,
          "rotation": 90,
          "visible": true,
          "gid": 29
        },
        {
          "id": 158,
          "name": "",
          "type": "",
          "x": 1984,
          "y": 223,
          "width": 192,
          "height": 64,
          "rotation": -270,
          "visible": true,
          "gid": 29
        },
        {
          "id": 159,
          "name": "",
          "type": "",
          "x": 1952,
          "y": 415,
          "width": 192,
          "height": 64,
          "rotation": -90,
          "visible": true,
          "gid": 29
        }
      ]
    },
    {
      "type": "objectgroup",
      "id": 5,
      "name": "castledeco",
      "x": 0,
      "y": 0,
      "visible": true,
      "opacity": 1,
      "draworder": "topdown",
      "objects": [
        {
          "id": 54,
          "name": "",
          "type": "",
          "x": 2063,
          "y": 698,
          "width": 65,
          "height": 64,
          "rotation": 0,
          "visible": true,
          "gid": 55
        },
        {
          "id": 55,
          "name": "",
          "type": "",
          "x": 2063,
          "y": 557,
          "width": 65,
          "height": 64,
          "rotation": 0,
          "visible": true,
          "gid": 55
        },
        {
          "id": 57,
          "name": "",
          "type": "exit",
          "x": 2016,
          "y": 991,
          "width": 160,
          "height": 192,
          "rotation": 0,
          "visible": true,
          "gid": 13,
          "properties": [
            {
              "name": "map",
              "type": "string",
              "value": "scene/game/map/sandbox2.json"
            }
          ]
        }
      ]
    },
    {
      "type": "objectgroup",
      "id": 6,
      "name": "shading",
      "x": 0,
      "y": 0,
      "visible": true,
      "opacity": 0.36,
      "draworder": "topdown",
      "objects": [
        {
          "id": 78,
          "name": "",
          "type": "",
          "x": 1952,
          "y": 991,
          "width": 32,
          "height": 512,
          "rotation": 0,
          "visible": true,
          "gid": 45
        },
        {
          "id": 80,
          "name": "",
          "type": "",
          "x": 448,
          "y": 991,
          "width": 32,
          "height": 256,
          "rotation": 0,
          "visible": true,
          "gid": 45
        },
        {
          "id": 89,
          "name": "",
          "type": "",
          "x": 928,
          "y": 991,
          "width": 32,
          "height": 256,
          "rotation": 0,
          "visible": true,
          "gid": 45
        },
        {
          "id": 112,
          "name": "",
          "type": "",
          "x": 2208,
          "y": 991,
          "width": 32,
          "height": 512,
          "rotation": 0,
          "visible": true,
          "gid": 45
        },
        {
          "id": 142,
          "name": "",
          "type": "",
          "x": 1888,
          "y": 479,
          "width": 32,
          "height": 64,
          "rotation": 0,
          "visible": true,
          "gid": 45
        },
        {
          "id": 143,
          "name": "",
          "type": "",
          "x": 2272,
          "y": 479,
          "width": 32,
          "height": 64,
          "rotation": 0,
          "visible": true,
          "gid": 45
        },
        {
          "id": 144,
          "name": "",
          "type": "",
          "x": 1984,
          "y": 490,
          "width": 254,
          "height": 11,
          "rotation": 0,
          "visible": true,
          "gid": 45
        },
        {
          "id": 145,
          "name": "",
          "type": "",
          "x": 2272,
          "y": 415,
          "width": 32,
          "height": 64,
          "rotation": 0,
          "visible": true,
          "gid": 45
        },
        {
          "id": 148,
          "name": "",
          "type": "",
          "x": 1888,
          "y": 415,
          "width": 32,
          "height": 188,
          "rotation": 0,
          "visible": true,
          "gid": 45
        },
        {
          "id": 149,
          "name": "",
          "type": "",
          "x": 2272,
          "y": 351,
          "width": 32,
          "height": 128,
          "rotation": 0,
          "visible": true,
          "gid": 45
        },
        {
          "id": 152,
          "name": "",
          "type": "",
          "x": 1888,
          "y": 351,
          "width": 32,
          "height": 64,
          "rotation": 0,
          "visible": true,
          "gid": 45
        },
        {
          "id": 171,
          "name": "",
          "type": "",
          "x": 1440,
          "y": 991,
          "width": 32,
          "height": 192,
          "rotation": 0,
          "visible": true,
          "gid": 45
        },
        {
          "id": 178,
          "name": "",
          "type": "",
          "x": 512,
          "y": 735,
          "width": 32,
          "height": 160,
          "rotation": 0,
          "visible": true,
          "gid": 45
        },
        {
          "id": 179,
          "name": "",
          "type": "",
          "x": 736,
          "y": 735,
          "width": 32,
          "height": 160,
          "rotation": 0,
          "visible": true,
          "gid": 45
        },
        {
          "id": 181,
          "name": "",
          "type": "",
          "x": 992,
          "y": 991,
          "width": 32,
          "height": 128,
          "rotation": 0,
          "visible": true,
          "gid": 45
        },
        {
          "id": 198,
          "name": "",
          "type": "",
          "x": 2496,
          "y": 1440,
          "width": 32,
          "height": 448,
          "rotation": 0,
          "visible": true,
          "gid": 45
        },
        {
          "id": 199,
          "name": "",
          "type": "",
          "x": 0,
          "y": 1440,
          "width": 32,
          "height": 448,
          "rotation": 0,
          "visible": true,
          "gid": 45
        }
      ]
    },
    {
      "type": "objectgroup",
      "id": 7,
      "name": "game",
      "x": 0,
      "y": 0,
      "visible": true,
      "opacity": 1,
      "draworder": "topdown",
      "objects": [
        {
          "id": 58,
          "name": "",
          "type": "",
          "x": 45,
          "y": 979.5,
          "width": 0,
          "height": 0,
          "rotation": 0,
          "visible": true
        },
        {
          "id": 111,
          "name": "",
          "type": "",
          "x": 594,
          "y": 571,
          "width": 0,
          "height": 0,
          "rotation": 0,
          "visible": true
        },
        {
          "id": 182,
          "name": "",
          "type": "",
          "x": 1344,
          "y": 799,
          "width": 0,
          "height": 0,
          "rotation": 0,
          "visible": true
        },
        {
          "id": 190,
          "name": "",
          "type": "",
          "x": 238,
          "y": 947.5,
          "width": 0,
          "height": 0,
          "rotation": 0,
          "visible": true
        },
        {
          "id": 191,
          "name": "",
          "type": "",
          "x": 352,
          "y": 860.5,
          "width": 0,
          "height": 0,
          "rotation": 0,
          "visible": true
        },
        {
          "id": 192,
          "name": "",
          "type": "",
          "x": 481,
          "y": 950.5,
          "width": 0,
          "height": 0,
          "rotation": 0,
          "visible": true
        },
        {
          "id": 200,
          "name": "",
          "type": "",
          "x": 1583.45,
          "y": 829.318,
          "width": 0,
          "height": 0,
          "rotation": 0,
          "visible": true
        },
        {
          "id": 201,
          "name": "",
          "type": "",
          "x": 1826.45,
          "y": 832.318,
          "width": 0,
          "height": 0,
          "rotation": 0,
          "visible": true
        },
        {
          "id": 202,
          "name": "",
          "type": "",
          "x": 1697.45,
          "y": 742.318,
          "width": 0,
          "height": 0,
          "rotation": 0,
          "visible": true
        }
      ]
    },
    {
      "type": "objectgroup",
      "id": 8,
      "name": "above",
      "x": 0,
      "y": 0,
      "visible": true,
      "opacity": 1,
      "draworder": "topdown",
      "objects": [
        {
          "id": 118,
          "name": "",
          "type": "",
          "x": 481,
          "y": 997,
          "width": 224,
          "height": 32,
          "rotation": 0,
          "visible": true,
          "gid": 19
        }
      ]
    },
    {
      "type": "objectgroup",
      "id": 9,
      "name": "bounds",
      "x": 0,
      "y": 0,
      "visible": false,
      "opacity": 1,
      "draworder": "topdown",
      "objects": [
        {
          "id": 197,
          "name": "",
          "type": "",
          "x": 2496,
          "y": 0,
          "width": 32,
          "height": 992,
          "rotation": 0,
          "visible": true,
          "properties": [
            {
              "name": "bodyType",
              "type": "string",
              "value": "static"
            }
          ]
        },
        {
          "id": 195,
          "name": "",
          "type": "",
          "x": 0,
          "y": 0,
          "width": 32,
          "height": 992,
          "rotation": 0,
          "visible": true,
          "properties": [
            {
              "name": "bodyType",
              "type": "string",
              "value": "static"
            }
          ]
        }
      ]
    }
  ]
}